packages/icons/svg/Fill/pie-chart.svg

<svg fill="none" height="24" viewBox="0 0 24 24" width="24" xmlns="http://www.w3.org/2000/svg"><path clip-rule="evenodd" d="m12.9345 11.9777h8.149c.542 0 .966.472.912 1.011-.544 5.426-5.416 9.578-11.114 8.948-4.585-.506-8.312-4.233-8.819-8.818-.628-5.69805 3.522-10.57105 8.949-11.11405.54-.054 1.011.369 1.011.911v8.15105c0 .503.408.911.912.911zm8.2325-1.6445h-6.667c-.46 0-.833-.37205-.833-.83305v-6.667c0-.46.373-.833.833-.833 4.135 0 7.5 3.364 7.5 7.5 0 .461-.373.83305-.833.83305z" fill="#6b7280" fill-rule="evenodd"/></svg>

<svg width="24" height="24" viewBox="0 0 24 24" fill="none" xmlns="http://www.w3.org/2000/svg">
<g id="Icon/Fill/pie-chart ">
<path id="Mask" fill-rule="evenodd" clip-rule="evenodd" d="M12.9344 11.9776H21.0834C21.6254 11.9776 22.0494 12.4496 21.9954 12.9886C21.4514 18.4146 16.5794 22.5666 10.8814 21.9366C6.29645 21.4306 2.56945 17.7036 2.06245 13.1186C1.43445 7.42061 5.58445 2.54761 11.0114 2.00461C11.5514 1.95061 12.0224 2.37361 12.0224 2.91561V11.0666C12.0224 11.5696 12.4304 11.9776 12.9344 11.9776ZM21.167 10.3331H14.4999C14.0399 10.3331 13.6669 9.96111 13.6669 9.50011V2.83311C13.6669 2.37311 14.0399 2.00011 14.4999 2.00011C18.6349 2.00011 22 5.36411 22 9.50011C22 9.96111 21.6269 10.3331 21.167 10.3331Z" fill="#000000"/>
</g>
</svg>
